X: 41497
T: Ud The Doudouk
R: jig
M: 6/8
K: Edorian
|:dee ede|gaf- fgf|dfe- egf|dfe- egf|
dee ede|gaf- fgf|dfe- egf|dfe dBc:|
|:GBB BAB|d2e zGB|BAB d2e|zGB BAB|
GBB BAB|d2e zGB|BAB d2e|dfe dBc:|
|:dee ede|g2f gaa|age dgf|edB ABc|
dee ede|g2f gaa|age dgf|edB A3:|

